X:342
T:Susie Go Lightly
R:hp 48
C:Ray Campbell
L:1/8
M:4/4
N:Written for wedding of John and Susie Golightly by JGs brother in law.
N: Montys Maggot played the wedding ceilidh at Sidmouth Folkweek
I:linebreak $
K:G
G2 B2 c2 E2 | FGAF G2 AB | c2 Ac B2 G2 | FGAF DEFD | G2 B2 c2 E2 |$ FGAF G2 AB | c2 Ac B2 G2 |1
FGAF G2 D2 :|2 FGAF GABc |: [Fd]4 [DA]3 G |$ FGAF G2 G2 | dedc [DA]2 [DA]2 | FGAF GABc |
[Fd]2 [Fd]2 A3 G |$ FGAF GABd | [Ec]4 [DA]3 G |1 FGAF GABc :|2 FGAF G2 D2 |] G2 B2 c2 E2 |$
FGAF G2 AB | c2 Ac B2 G2 | FGAF DEFD | G2 B2 c2 E2 |$ FGAF G2 AB | c2 Ac B2 G2 | FGAF G2 AB |
c2 E2 FGAF |$ G2 AB cBAc | BAGB AGFE | D2 (3DEF G2 B2 | c2 E2 FGAF | G2 AB cBAc |$
BAGB AG F/G/A/F/ | G8 |]

